10/img/apartments.svg

<svg width="40" height="40" viewBox="0 0 40 40" fill="none" xmlns="http://www.w3.org/2000/svg">
<path d="M15.4015 35.2194H23.7549V23.0613H15.4015V35.2194ZM22.2408 33.7441H16.9155V24.5365H22.1886V33.7441H22.2408Z" fill="#81B3D2"/>
<path d="M37.9036 22.0431L39 20.9748L33.8313 15.9386V2.20348H26.6265V8.91843L19.4739 2L0 21.0257L1.09639 22.094L5.16867 18.126V37.3552H3.13253V38.8305H36.494V37.3552H33.8313V18.0752L37.9036 22.0431ZM28.1406 3.72961H32.2651V14.4633L28.1406 10.4446V3.72961ZM32.3173 37.3043H6.73494V16.5999L19.4739 4.13657L32.2651 16.5999V37.3043H32.3173Z" fill="#81B3D2"/>
<path d="M15.5582 15.8369C15.5582 18.0243 17.3855 19.8048 19.5783 19.8048C21.8233 19.8048 23.6506 18.0243 23.6506 15.8369C23.6506 13.6494 21.8233 11.9198 19.5783 11.9198C17.3333 11.9198 15.5582 13.6494 15.5582 15.8369ZM19.5783 13.2933C20.9879 13.2933 22.1888 14.4125 22.1888 15.8369C22.1888 17.2104 21.0402 18.3804 19.5783 18.3804C18.1687 18.3804 16.9679 17.2612 16.9679 15.8369C16.9679 14.4633 18.1687 13.2933 19.5783 13.2933Z" fill="#81B3D2"/>
<path d="M10.3895 23.0613H8.82324V25.0452H10.3895V23.0613Z" fill="#81B3D2"/>
<path d="M13.4698 23.0613H11.9036V25.0452H13.4698V23.0613Z" fill="#81B3D2"/>
<path d="M10.3895 26.1128H8.82324V28.0968H10.3895V26.1128Z" fill="#81B3D2"/>
<path d="M13.4698 26.1128H11.9036V28.0968H13.4698V26.1128Z" fill="#81B3D2"/>
<path d="M27.0443 23.0613H25.478V25.0452H27.0443V23.0613Z" fill="#81B3D2"/>
<path d="M30.1769 23.0613H28.6106V25.0452H30.1769V23.0613Z" fill="#81B3D2"/>
<path d="M27.0443 26.1128H25.478V28.0968H27.0443V26.1128Z" fill="#81B3D2"/>
<path d="M30.1769 26.1128H28.6106V28.0968H30.1769V26.1128Z" fill="#81B3D2"/>
</svg>

<svg width="40" height="40" fill="none" xmlns="http://www.w3.org/2000/svg"><path d="M15.402 35.22h8.353V23.06h-8.353V35.22zm6.839-1.476h-5.325v-9.207h5.273v9.207h.052z" fill="#81B3D2"/><path d="M37.904 22.043L39 20.975l-5.169-5.036V2.203h-7.205v6.715L19.474 2 0 21.026l1.096 1.068 4.073-3.968v19.23H3.133v1.474h33.361v-1.475h-2.663v-19.28l4.073 3.968zM28.14 3.73h4.124v10.733l-4.124-4.018V3.73zm4.176 33.574H6.735V16.6L19.474 4.137 32.265 16.6v20.704h.052z" fill="#81B3D2"/><path d="M15.558 15.837c0 2.187 1.828 3.968 4.02 3.968 2.245 0 4.073-1.78 4.073-3.968 0-2.188-1.828-3.917-4.073-3.917s-4.02 1.73-4.02 3.917zm4.02-2.544c1.41 0 2.61 1.12 2.61 2.544 0 1.373-1.148 2.543-2.61 2.543-1.41 0-2.61-1.119-2.61-2.543 0-1.374 1.2-2.544 2.61-2.544zM10.39 23.061H8.822v1.984h1.566v-1.984zM13.47 23.061h-1.566v1.984h1.566v-1.984zM10.39 26.113H8.822v1.984h1.566v-1.984zM13.47 26.113h-1.566v1.984h1.566v-1.984zM27.044 23.061h-1.566v1.984h1.566v-1.984zM30.177 23.061H28.61v1.984h1.566v-1.984zM27.044 26.113h-1.566v1.984h1.566v-1.984zM30.177 26.113H28.61v1.984h1.566v-1.984z" fill="#81B3D2"/></svg>
